X: 526
T: Drunkards Hiccoughs
B: jims roots
M:3/4
L:1/8
Q: 1/4=100
K:G
V:1 
%S: Viola Ruth "Pioneer Western Folk Tunes" 1948
%R: waltz
|:{c}B2G2D2 | {c}B2G2D2 | E2G2 A2|[1 [B6G]:|[2 [B,6G]||
|:"G"B2 G2 (GE) | D2 B,2 D2 | "C"E2 G2 G2 | "G"B4 (GA) | B2 G2 (GE) | D2 B,2 D2 | "C"E2 G2 A2 | "G"G4 (GA):|
|:"G"B2 A2 (Bc) | d2 G2 A2 | B2 c2 B2 | "D"A4 (GA) :| "G"B2 G2 (GE) | D2 B,2 D2 | "C"E2 G2 A2 | "G"G4 B,2 ||
|:"C"C[EC] [EC][EC][EC][EC] | "G"B,[DB,] [DB,][DB,][DB,][DB,] | "C"(E[GB,]) [G2B,2] [G2B,2] |
"G"[B4G4] B,2 | "C"C[EC] [EC][EC][EC][EC] | "G"B,[DB,] [DB,][DB,][DB,][DB,] | "C"E2 G2 A2 | "G"[G4B,4] :|
% abcbook-tune_id 6298c245c29f3e5e4a5343b2


% abcbook-boost 0
% abcbook-tablature 
% abcbook-transpose 
% abcbook-lastupdated 1654178374035
% abcbook-soundfonts 
% abcbook-repeats 1


